Yaru++/apps/scalable/xterm.svg

<svg enable-background="new" height="256" viewBox="0 0 256 256" width="256" xmlns="http://www.w3.org/2000/svg" xmlns:xlink="http://www.w3.org/1999/xlink">
  <linearGradient id="linearGradient918" gradientUnits="userSpaceOnUse" x1="252.122" x2="21.425" y1="210.694" y2="210.694">
    <stop offset="0"/>
    <stop offset="1" stop-opacity="0"/>
  </linearGradient>
  <filter id="filter920" color-interpolation-filters="sRGB" height="1.143" width="1.103" x="-.05" y="-.07">
    <feGaussianBlur stdDeviation="3.138"/>
  </filter>
  <linearGradient id="linearGradient4358" gradientTransform="matrix(0 -1 1 0 -10.0054 585.9946)" gradientUnits="userSpaceOnUse" x1="88" x2="488" y1="88" y2="488">
    <stop offset="0" stop-opacity=".588235"/>
    <stop offset=".88" stop-opacity="0"/>
    <stop offset="1"/>
  </linearGradient>
  <filter id="filter4380" color-interpolation-filters="sRGB" height="1.088" width="1.106" x="-.05" y="-.04">
    <feGaussianBlur stdDeviation="8.48"/>
  </filter>
  <filter id="filter4346" color-interpolation-filters="sRGB" height="1.022" width="1.026" x="-.01" y="-.01">
    <feGaussianBlur stdDeviation="2.12"/>
  </filter>
  <path d="m189.84323 74c-70.59344 0-78.18921 7.250835-77.84323 77.98706v146.01294 146.01294c-.34598 70.73623 7.24979 77.98706 77.84323 77.98706h196.31354c70.59344 0 76.00668-7.27384 77.84323-77.98706v-146.01294-146.01294c0-70.737067-7.24979-77.98706-77.84323-77.98706z" filter="url(#filter4346)" opacity=".1" transform="matrix(0 .5 -.5 0 276.82523 -15.328148)"/>
  <path d="m189.84323 74c-70.59344 0-78.18921 7.250835-77.84323 77.98706v146.01294 146.01294c-.34598 70.73623 7.24979 77.98706 77.84323 77.98706h196.31354c70.59344 0 77.84323-7.24999 77.84323-77.98706v-146.01294-146.01294c0-70.737067-7.24979-77.98706-77.84323-77.98706z" fill="url(#linearGradient4358)" filter="url(#filter4380)" opacity=".3" transform="matrix(0 .5 -.5 0 276.82523 -15.328148)"/>
  <path d="m241.83043 77.478254c0-36.098811-3.69016-39.983003-39.68984-39.806081h-74.31016-74.310154c-35.99969-.176922-39.68984 3.70727-39.68984 39.806081v100.387326c0 36.09881 3.68973 39.80608 39.68984 39.80608h74.310154 74.31016c36.00011 0 39.68984-3.70727 39.68984-39.80608z" opacity=".1"/>
  <path d="m239.82523 176.74484c0 35.29673-3.62542 39.09461-38.99353 38.92162h-73.00647-73.006464c-35.36812.17299-38.99353-3.62489-38.99353-38.92162v-98.156766c0-35.296716 3.625-38.921616 38.99353-38.921616h73.006464 73.00647c35.36853 0 38.99353 3.6249 38.99353 38.921616z" fill="#4d4d4d"/>
  <path d="m54.81817 39.667201c-35.36853 0-38.992187 3.623202-38.992187 38.919923v98.158206c0 .0882.0019.16224.002.25v-96.410156c-.000047-35.29672 3.625564-38.921879 38.994094-38.921879h73.005853 73.00586c35.28016 0 38.97394 3.621035 38.99219 38.671879v-1.74805c0-35.296721-3.62561-38.919923-38.99414-38.919923h-73.00586z" fill="#fff" opacity=".3"/>
  <path d="m15.825983 174.74533v2c0 35.29673 3.624067 39.09487 38.992187 38.92188h73.00781 73.00586c35.36811.17299 38.99414-3.62515 38.99414-38.92188v-2c0 35.29673-3.62603 39.09487-38.99414 38.92188h-73.00586-73.00781c-35.36812.17299-38.992187-3.62515-38.992187-38.92188z" opacity=".2"/>
  <path d="m15.825983 119.66916v57.07617c0 35.29673 3.624067 39.09487 38.992187 38.92188h73.00781 73.00586c35.36811.17299 38.99414-3.62515 38.99414-38.92188v-57.07617z" fill="#fff" opacity=".05"/>
  <path d="m110.85775 138-4.93526 14.80579 50.10039 20.04015-50.10039 20.04016 4.93526 14.80578 64.45752-27.21872v-15.25444zm64.36555 90.03114v15.10489h76.69918v-15.10489z" fill="url(#linearGradient918)" filter="url(#filter920)" opacity=".5" transform="matrix(.52016215 0 0 .52160725 -3.316871 -6.230705)"/>
  <path d="m54.347139 64.707879-2.56714 7.722805 26.060317 10.45309-26.060317 10.45309 2.56714 7.722806 33.528357-14.197476v-7.95683zm33.480517 46.960901v8h39.999994v-8z" fill="#f2f2f2"/>
  <path d="m54.347279 64.707879-2.56728 7.723255.3058.12225 2.26148-6.80229 33.528107 14.1975v-1.04322zm22.192227 18.697375-24.759507 9.93194.3058.92096 25.754117-10.33129zm11.28782 28.263586v1.04321h40.000324v-1.04321z" fill="#fff"/>
  <path d="m91.160156 215.66602h31.312504l40.63086-59.78321 38.52343 59.77149c4.062.01216 7.78529-.01638 11.03516-.16211 3.48397-.15623 6.52683-.42948 9.18359-.8711 2.65676-.44161 4.92781-1.05218 6.86719-1.88671.96969-.41727 1.85507-.89013 2.66602-1.42579.81094-.53566 1.54697-1.13524 2.21289-1.80273s1.26224-1.40403 1.79687-2.2168c.53463-.81276 1.00676-1.70039 1.42383-2.67187.67418-1.57038 1.11733-3.52559 1.53125-5.55664v-16.35938l-37.20508-51.35742 37.20508-49.689453v-25.353516c-.4139-2.025321-.85711-3.974473-1.53125-5.539062-.41706-.967935-.88921-1.852595-1.42383-2.66211-.53462-.809514-1.13096-1.544195-1.79687-2.208984-.369-.36837-.81398-.66694-1.22657-.994141l-45.73046 62.603516-44.59961-67.652344h-54.208988l60.048828 91.978514z" fill="#e4e4e4" opacity=".1"/>
</svg>

<svg xmlns="http://www.w3.org/2000/svg" xmlns:xlink="http://www.w3.org/1999/xlink" style="enable-background:new" width="256" height="256" version="1.0" viewBox="0 0 256 256">
 <title id="title4162">
  Adwaita Icon Template
 </title>
 <defs>
  <linearGradient id="linearGradient965" x1="48" x2="464" y1="44" y2="44" gradientUnits="userSpaceOnUse">
   <stop id="stop989" offset="0" style="stop-color:#77767b"/>
   <stop id="stop991" offset=".05" style="stop-color:#c0bfbc"/>
   <stop id="stop993" offset=".1" style="stop-color:#9a9996"/>
   <stop id="stop995" offset=".9" style="stop-color:#9a9996"/>
   <stop id="stop997" offset=".95" style="stop-color:#c0bfbc"/>
   <stop id="stop999" offset="1" style="stop-color:#77767b"/>
  </linearGradient>
  <radialGradient id="radialGradient1030" cx="64" cy="194.19" r="44" gradientTransform="matrix(-4.7273,7.9359e-7,-3.0301e-7,-1.6364,238.55,49.766)" gradientUnits="userSpaceOnUse">
   <stop id="stop1016" offset="0" style="stop-color:#fff"/>
   <stop id="stop1018" offset="1" style="stop-color:#fff;stop-opacity:.094118"/>
  </radialGradient>
  <linearGradient id="linearGradient1950" x1="70.347" x2="70.347" y1="245.4" y2="269.14" gradientUnits="userSpaceOnUse">
   <stop id="stop1944" offset="0" style="stop-color:#2d2839"/>
   <stop id="stop1946" offset="1" style="stop-color:#282433"/>
  </linearGradient>
  <linearGradient id="linearGradient918" x1="252.122" x2="21.425" y1="210.694" y2="210.694" gradientUnits="userSpaceOnUse" xlink:href="#linearGradient916"/>
  <linearGradient id="linearGradient916">
   <stop style="stop-color:#000000" id="stop912" offset="0"/>
   <stop style="stop-color:#000000;stop-opacity:0" id="stop914" offset="1"/>
  </linearGradient>
  <filter style="color-interpolation-filters:sRGB" id="filter920" width="1.103" height="1.143" x="-.05" y="-.07">
   <feGaussianBlur id="feGaussianBlur922" stdDeviation="3.138"/>
  </filter>
  <linearGradient id="linearGradient4358" x1="88" x2="488" y1="88" y2="488" gradientTransform="rotate(-90,287.9946,298)" gradientUnits="userSpaceOnUse" xlink:href="#linearGradient4360"/>
  <linearGradient id="linearGradient4360">
   <stop id="stop4362" offset="0" style="stop-color:#000000;stop-opacity:0.58823532"/>
   <stop style="stop-color:#000000;stop-opacity:0" id="stop4364" offset=".88"/>
   <stop id="stop4366" offset="1" style="stop-color:#000000"/>
  </linearGradient>
  <filter style="color-interpolation-filters:sRGB" id="filter4380" width="1.106" height="1.088" x="-.05" y="-.04">
   <feGaussianBlur id="feGaussianBlur4382" stdDeviation="8.48"/>
  </filter>
  <filter style="color-interpolation-filters:sRGB" id="filter4346" width="1.026" height="1.022" x="-.01" y="-.01">
   <feGaussianBlur id="feGaussianBlur4348" stdDeviation="2.12"/>
  </filter>
 </defs>
 <path style="opacity:0.1;filter:url(#filter4346)" d="M 189.84323,74 C 119.24979,74 111.65402,81.250835 112,151.98706 V 298 444.01294 C 111.65402,514.74917 119.24979,522 189.84323,522 H 386.15677 C 456.75021,522 462.16345,514.72616 464,444.01294 V 298 151.98706 C 464,81.249993 456.75021,74 386.15677,74 Z" transform="matrix(0,0.5,-0.5,0,276.82523,-15.328148)"/>
 <path d="M 189.84323,74 C 119.24979,74 111.65402,81.250835 112,151.98706 V 298 444.01294 C 111.65402,514.74917 119.24979,522 189.84323,522 H 386.15677 C 456.75021,522 464,514.75001 464,444.01294 V 298 151.98706 C 464,81.249993 456.75021,74 386.15677,74 Z" transform="matrix(0,0.5,-0.5,0,276.82523,-15.328148)" style="opacity:0.3;fill:url(#linearGradient4358);filter:url(#filter4380)"/>
 <path style="opacity:0.1" d="m 241.83043,77.478254 c 0,-36.098811 -3.69016,-39.983003 -39.68984,-39.806081 H 127.83043 53.520276 c -35.99969,-0.176922 -39.68984,3.70727 -39.68984,39.806081 V 177.86558 c 0,36.09881 3.68973,39.80608 39.68984,39.80608 h 74.310154 74.31016 c 36.00011,0 39.68984,-3.70727 39.68984,-39.80608 z"/>
 <path style="fill:#4d4d4d" d="m 239.82523,176.74484 c 0,35.29673 -3.62542,39.09461 -38.99353,38.92162 H 127.82523 54.818766 c -35.36812,0.17299 -38.99353,-3.62489 -38.99353,-38.92162 V 78.588074 c 0,-35.296716 3.625,-38.921616 38.99353,-38.921616 h 73.006464 73.00647 c 35.36853,0 38.99353,3.6249 38.99353,38.921616 z"/>
 <path style="opacity:0.3;fill:#ffffff" d="m 54.81817,39.667201 c -35.36853,0 -38.992187,3.623202 -38.992187,38.919923 v 98.158206 c 0,0.0882 0.0019,0.16224 0.002,0.25 V 80.585174 c -4.7e-5,-35.29672 3.625564,-38.921879 38.994094,-38.921879 h 73.005853 73.00586 c 35.28016,0 38.97394,3.621035 38.99219,38.671879 v -1.74805 c 0,-35.296721 -3.62561,-38.919923 -38.99414,-38.919923 h -73.00586 z"/>
 <path style="opacity:0.2" d="m 15.825983,174.74533 v 2 c 0,35.29673 3.624067,39.09487 38.992187,38.92188 h 73.00781 73.00586 c 35.36811,0.17299 38.99414,-3.62515 38.99414,-38.92188 v -2 c 0,35.29673 -3.62603,39.09487 -38.99414,38.92188 H 127.82598 54.81817 C 19.45005,213.8402 15.825983,210.04206 15.825983,174.74533 Z"/>
 <path style="opacity:0.05;fill:#ffffff" d="m 15.825983,119.66916 v 57.07617 c 0,35.29673 3.624067,39.09487 38.992187,38.92188 h 73.00781 73.00586 c 35.36811,0.17299 38.99414,-3.62515 38.99414,-38.92188 v -57.07617 z"/>
 <path style="opacity:0.5;fill:url(#linearGradient918);filter:url(#filter920)" d="m 110.85775,138 -4.93526,14.80579 50.10039,20.04015 -50.10039,20.04016 4.93526,14.80578 64.45752,-27.21872 v -15.25444 z m 64.36555,90.03114 v 15.10489 h 76.69918 v -15.10489 z" transform="matrix(0.52016215,0,0,0.52160725,-3.3168708,-6.2307045)"/>
 <path style="fill:#f2f2f2" d="m 54.347139,64.707879 -2.56714,7.722805 26.060317,10.45309 -26.060317,10.45309 2.56714,7.722806 33.528357,-14.197476 v -7.95683 z m 33.480517,46.960901 v 8 h 39.999994 v -8 z"/>
 <path style="fill:#ffffff" d="m 54.347279,64.707879 -2.56728,7.723255 0.3058,0.12225 2.26148,-6.80229 33.528107,14.1975 v -1.04322 z m 22.192227,18.697375 -24.759507,9.93194 0.3058,0.92096 25.754117,-10.33129 z m 11.28782,28.263586 v 1.04321 h 40.000324 v -1.04321 z"/>
 <path style="opacity:0.1;fill:#e4e4e4" d="M 91.160156 215.66602 L 122.47266 215.66602 L 163.10352 155.88281 L 201.62695 215.6543 C 205.68895 215.66646 209.41224 215.63792 212.66211 215.49219 C 216.14608 215.33596 219.18894 215.06271 221.8457 214.62109 C 224.50246 214.17948 226.77351 213.56891 228.71289 212.73438 C 229.68258 212.31711 230.56796 211.84425 231.37891 211.30859 C 232.18985 210.77293 232.92588 210.17335 233.5918 209.50586 C 234.25772 208.83837 234.85404 208.10183 235.38867 207.28906 C 235.9233 206.4763 236.39543 205.58867 236.8125 204.61719 C 237.48668 203.04681 237.92983 201.0916 238.34375 199.06055 L 238.34375 182.70117 L 201.13867 131.34375 L 238.34375 81.654297 L 238.34375 56.300781 C 237.92985 54.27546 237.48664 52.326308 236.8125 50.761719 C 236.39544 49.793784 235.92329 48.909124 235.38867 48.099609 C 234.85405 47.290095 234.25771 46.555414 233.5918 45.890625 C 233.2228 45.522255 232.77782 45.223685 232.36523 44.896484 L 186.63477 107.5 L 142.03516 39.847656 L 87.826172 39.847656 L 147.875 131.82617 L 91.160156 215.66602 z"/>
</svg>
